X:261
T: ES LEBEN DIE ALTEN DIE WEIBER DER WEIN
N: B0310
O: Europa, Mitteleuropa, Deutschland
R: Geselligkeits - Lied, Freude
M: 3/4
L: 1/8
K: Bb
F2 | B2B2B2 | d2B2
B2 | d2d2d2 | f4
d2 | fee2c2 | edd2
B2 | ABcBAG | F4
d2 | c2c2d2 | c2c2
d2 | c2edfd | c4
f2 | fed2d2 | dcB2
B2 | c2cBcd | B4

